media/add-to-list.svg

<svg width="20" height="14" viewBox="0 0 20 14" xmlns="http://www.w3.org/2000/svg"><path d="M12 4h-12v2h12v-2zm-12-4v2h16v-2h-16zm16 8v-4h-2v4h-4v2h4v4h2v-4h4v-2h-4zm-16 2h8v-2h-8v2z" fill="#4A4A4A" fill-rule="evenodd"/></svg>

<svg width="20" height="14" viewBox="0 0 20 14" xmlns="http://www.w3.org/2000/svg"><path d="M12 4H0v2h12V4zM0 0v2h16V0H0zm16 8V4h-2v4h-4v2h4v4h2v-4h4V8h-4zM0 10h8V8H0v2z" fill="#4A4A4A" fill-rule="evenodd"/></svg>
